X: 18
T:Mistress Ceasey. JaW.018
T:Mrs. Casey,aka. JaW.018
M:6/8
Q:120
C:Mrs. Casey,aka
S:James Winder Ms, Lancashire, 1835-41
R:Jig
O:England
A:Wyresdale,Lancashire
H:1/8
Z:vmp.Chris Partington, Aug 2004
K:D
d2B (BcB)|A2A (ABA)|B2B (BcB)|g3 (f2e)|!
d2B (BcB)|A2A (ABA)|B2B (BcB)d3 (f2e):|!
d2e f2g|a2b a2f|d2e f2g|a3-aga|!
a2g a2g|g2e a2f|d2B (BcB)|g3 (g2f)|]
